X: 1
T: O Maria, Mari   [Am,A]
C: E. di Capua (1899)
N: Words: Vincenzo Russo
N: Music: Eduardo di Capua (1865-1917)
%: Italy
R: waltz
Z: 1999 John Chambers <jc@trillian.mit.edu>
M: 6/8
L: 1/8
K: Am
% %continueall
%%vocalspace 30pt
% %indent 220
"Intro"[|]B,/C/DE \
| "Am"CE2 "E7"B,/C/DE | "Am"CE2 "E7"^G/A/Bc \
| "Am"AE2 "E7"B,/C/DE | "Am"A,3 z3 |  z3 ||
"A"\
|: "(E7)"z2E | "Am"c3- "E7"cB/A/^G/B/ |  "Am"A/^G/A2- "(A7)"A2z |  "Dm"A3- AA/^G/A/F/ |
w:~ 1.~A-*r\`a-pe-te fe-ne-*sta!* Fam-*me~af-fac-ci\`a~a Ma-
w:~ 2.~Nun* tro-vo n'o-ra~'e pa-*ce:* 'a* not-te~'a fac-cio
"Am"E/^D/E2- E2z | "E7"D3- DD/^C/D/E/ | "Am"=C3 C2z | "Dm"B,3- "E7"B,B,/^A,/B,/C/ | "Am"A,3 :|
w: 1.~ri-*a,* ca* ston-go 'mmie-z'a vi-a spe-*ru-to d'a ve-d\`e.
w: 2.~juor-*no,* sem-*pe' st\`a cc\`a at-tuor-no, spe-*ran-no~'e ce par-la
K: A
"B"|: "(E7)"z[AC][BD] | "A"[A3-C3-] "(E7)"[AC][FD][GE] | "A"[E3-C3-] [EC][EC][EC] \
| [FC][FC][FC] [GC][GC][EC] | "Bm"[F3-D3-] [F3D3] |
w: O Ma-ri-*a, Ma-ri,* quan-ta suon-no ca per-do pe' te!_
w:
| "E7"[G3E3] [A2F2][BG] | (3[G/E][A/F][G/E] [F2-D2-] [FD][FD][FD] \
| [GE][GE][GE] [GE][AF]>[BG] | "A"(3[F/D][G/E][F/D] [E2C2] z[AC][BD] |
w: Fam-me~ad-dur-mi,____ ab-brac-cia-to nu po-co cu-te!___ O Ma-
| "A"[A3-C3-] "(E7)"[AC][FD][GE] | "A"[C3-E3-] [CE][AC][BD] \
| "F#7"[cE][cE]>[^B^D] [cE][dF][e=G] | "Bm"(3[c/E][d/F][c/E][B2-D2-] [BD][BD][cE] |
w: ri-*a, Ma-ri* quan-ta suon-no ca per-do pe' te!____**
| "D"[d3F3] "Dm"[B2=F2D2][cFD] | "A"[A3-C3E3-] [ACE][FD][GE] \
| "E7"[E3-D3-] [ED][BGD][cGD] | "A"{cB}[A3C3E3] :|
w: Fam-me~ad-dur-mi,* O Ma-ri-*a, Ma-ri!

%%sep 2 1 400


